!!!COM:	Busnoys, Antoine
!!!CDT:	~1430///-1492/11/06
!!!OTL:	Bel Acueil le sergent d'Amours
!!!AGN:	Song; Chanson
!!!SCT:	Bus3009
!!!SCA:	Bus3009
!!!voices:	3
**kern	**text	**kern	**text	**kern	**text
*staff3	*staff3	*staff2	*staff2	*staff1	*staff1
*Ivox	*	*Ivox	*	*Ivox	*
*I"Tenor	*	*I"Contra	*	*I"Discantus	*
*I'T	*	*I'C	*	*I'Discantus	*
*clefGv2	*	*clefGv2	*	*clefGv2	*
*k[b-]	*	*k[b-]	*	*k[b-]	*
*M3/1	*	*M3/1	*	*M3/1	*
*met(O)	*	*met(O)	*	*met(O)	*
=1-	=1-	=1-	=1-	=1-	=1-
!	!	!	!	!LO:TX:X=-40:Z=8:t=Rondeau for three equal voices	!
1D	Bel	0.r	.	0.r	.
1F	Accueil	.	.	.	.
1G	le	.	.	.	.
=2	=2	=2	=2	=2	=2
2B-	sergant	1D	Bel	0.r	.
2.A	.	.	.	.	.
.	.	1F	Accueil	.	.
4G	d'amours,	.	.	.	.
2F	.	.	.	.	.
1E	.	1G	le	.	.
=3	=3	=3	=3	=3	=3
1D	.	2B-	sergant	1D	Bel
.	.	2.A	.	.	.
1r	.	.	.	1F	Accueil
.	.	4G	d'amours,	.	.
.	.	2F	.	.	.
1c	.	1E	.	1G	le
=4	=4	=4	=4	=4	=4
1d	.	1D	.	2B-	sergant
.	.	.	.	2.A	.
2c	.	1r	.	.	.
.	.	.	.	4G	.
1A	.	.	.	2F	d'amours,
.	.	1c	.	1E	.
2G	.	.	.	.	.
=5	=5	=5	=5	=5	=5
2B-	.	2d	.	2D	.
1c	.	2.e	Bel	2C	.
.	.	.	.	1F	.
.	.	4d	.	.	.
1A	.	2.d	.	.	.
.	.	.	.	1E	.
.	.	4c#i	.	.	.
2G	.	4c#i	.	.	.
.	.	4Bni	.	.	.
=6	=6	=6	=6	=6	=6
1.A	.	1d	.	2.D	.
.	.	.	.	4E	.
.	.	1r	.	2F	.
1B-	.	.	.	1G	.
.	.	1d	.	.	.
2A	.	.	.	2F	.
=7	=7	=7	=7	=7	=7
2F	.	1d	.	1D	.
2G	.	.	.	.	.
2A	.	2c	.	1r	.
1G	.	1B-	.	.	.
.	.	.	.	1d	En
2F	.	4A	.	.	.
.	.	4G	.	.	.
=8	=8	=8	=8	=8	=8
1D	.	2F	.	1d	bien
.	.	2G	.	.	.
1r	.	2A	.	2c	faire
.	.	1G	.	1B-	ses
1d	.	.	.	.	.
.	.	4F	.	4A	esploys,
.	.	4E	.	4G	.
=9	=9	=9	=9	=9	=9
1d	.	1D	.	2F	.
.	.	.	.	2G	.
2c	.	1r	.	2A	.
1B-	.	.	.	1G	.
.	.	1d	.	.	.
4A	.	.	.	4F	.
4G	.	.	.	4E	.
=10	=10	=10	=10	=10	=10
2F	.	1d	.	2D	.
1G	.	.	.	2.B-	.
.	.	1e	.	.	.
.	.	.	.	4A	.
4F	.	.	.	2G	.
4E	.	.	.	.	.
2D	.	2.f	.	2F	.
[2F	.	.	.	[2A	.
.	.	4e	.	.	.
=11	=11	=11	=11	=11	=11
4F]	.	2d	.	4A]	.
4G	.	.	.	4B-	.
1A	.	4c	.	1c	.
.	.	4B-	.	.	.
.	.	2A	.	.	.
2F	.	1d	.	1A	.
1E	.	.	.	.	.
.	.	2c#i	.	2G	.
=12	=12	=12	=12	=12	=12
0.DN	.	0dN	.	1AN	.
.	.	.	.	1r	.
.	.	1r	.	1A	M'a
=13	=13	=13	=13	=13	=13
2r	.	1A	.	1F	jacit&eacute;
1A	.	.	.	.	.
.	.	1F	.	1A	par
1F	.	.	.	.	.
.	.	1A	.	1D	pluseurs
[2A	.	.	.	.	.
=14	=14	=14	=14	=14	=14
2A]	.	2D	.	2d	foys,
2D	.	1A	.	2.f	.
2r	.	.	.	.	.
.	.	.	.	4e	.
2.G	.	2B-	.	2.d	.
.	.	1G	.	.	.
4E	.	.	.	4c	.
2G	.	.	.	4B-	.
.	.	.	.	4A	.
=15	=15	=15	=15	=15	=15
1D	.	1F	.	1A	.
2E	.	2r	.	2G	.
2.F	.	1c	.	2F	.
.	.	.	.	2A	.
4E	.	.	.	.	.
2D	.	2d	.	2B-	.
=16	=16	=16	=16	=16	=16
2C	.	2e	.	2c	.
2D	.	1f	.	2.A	.
1F	.	.	.	.	.
.	.	.	.	4F	.
.	.	4e	.	2A	.
.	.	4d	.	.	.
1C	.	4e	.	1G	.
.	.	4d	.	.	.
.	.	4c	.	.	.
.	.	4B-	.	.	.
=17	=17	=17	=17	=17	=17
2.c	.	1.A	.	0F	.
4B-	.	.	.	.	.
2c	.	.	.	.	.
1d	.	2F	.	.	.
.	.	2G	.	1r	.
2c	.	2A	.	.	.
=18	=18	=18	=18	=18	=18
1.A	.	0F	.	2.c	D'aller
.	.	.	.	4B-	.
.	.	.	.	2c	l'une
2F	.	.	.	1d	de
2G	.	1r	.	.	.
2A	.	.	.	2c	ses
=19	=19	=19	=19	=19	=19
0F	.	2.c	.	1.A	cours,
.	.	4B-	.	.	.
.	.	2c	.	.	.
.	.	1d	.	2F	.
1r	.	.	.	2G	.
.	.	2c	.	2A	.
=20	=20	=20	=20	=20	=20
1.c	.	2.A	.	2.F	.
.	.	4B-	.	4G	.
.	.	2c	.	2A	.
4B-	.	1d	.	4G	.
4A	.	.	.	4F	.
2.G	.	.	.	1E	.
.	.	2c	.	.	.
4F	.	.	.	.	.
=21	=21	=21	=21	=21	=21
2.A	.	2d	.	1D	.
.	.	2.A	.	.	.
4B-	.	.	.	.	.
2c	.	.	.	1r	.
.	.	4G	.	.	.
1d	.	2F	.	.	.
.	.	1E	.	1G	.
2c#i	.	.	.	.	.
=22	=22	=22	=22	=22	=22
1d	.	1D	.	2.F	.
.	.	.	.	4G	.
2c	.	1r	.	2.A	.
2.A	.	.	.	.	.
.	.	.	.	4B-	.
.	.	1A	.	2c	.
4G	.	.	.	.	.
2F	.	.	.	2d	.
=23	=23	=23	=23	=23	=23
2E	.	2G	.	2e	.
1A	.	2F	.	2.f	.
.	.	2D	.	.	.
.	.	.	.	4d	.
2F	.	1A	.	1d	.
1E	.	.	.	.	.
.	.	2G	.	2c#i	.
=24	=24	=24	=24	=24	=24
0.Dl	.	0.Al	.	0.dl	.
==	==	==	==	==	==
*-	*-	*-	*-	*-	*-
!!!RDF**kern: l=long note in original notation
!!!RDF**kern: i=editorial accidental
!!!RDF**kern: N=signum congruentiae
!!!ENC:	Jesse Rodin 8/16/2013
!!!END:	2013/08/16/
!!!EED:	Jesse Rodin
!!!EEV:	2013/12/30/
!!!ONB:	Translated from MusicXML and edited on 2013/12/30/ by Craig Sapp
!!muse2ps: C^@{COM}^i2I150v85,85,130Q16
